docs/svgs/room-kids.svg

<svg viewBox="0 0 24 24" height="24px" width="24px" fill="#44739e" xmlns="http://www.w3.org/2000/svg"><title>hue:room-kids</title><desc>Source: https://github.com/arallsopp/hass-hue-icons</desc><path d="M 15.75 19.125 C 14.921875 19.125 14.25 18.285156 14.25 17.25 C 14.25 16.214844 14.921875 15.375 15.75 15.375 C 16.578125 15.375 17.25 16.214844 17.25 17.25 C 17.25 18.285156 16.578125 19.125 15.75 19.125 M 12 11.25 C 10.757812 11.25 9.75 10.410156 9.75 9.375 C 9.75 8.339844 10.757812 7.5 12 7.5 C 13.242188 7.5 14.25 8.339844 14.25 9.375 C 14.25 10.410156 13.242188 11.25 12 11.25 M 8.25 19.125 C 7.421875 19.125 6.75 18.285156 6.75 17.25 C 6.75 16.214844 7.421875 15.375 8.25 15.375 C 9.078125 15.375 9.75 16.214844 9.75 17.25 C 9.75 18.285156 9.078125 19.125 8.25 19.125 Z M 12 8.25 C 12.414062 8.25 12.75 8.585938 12.75 9 C 12.75 9.414062 12.414062 9.75 12 9.75 C 11.585938 9.75 11.25 9.414062 11.25 9 C 11.25 8.585938 11.585938 8.25 12 8.25 Z M 18.75 12 C 18.425781 12 18.121094 12.070312 17.84375 12.195312 C 17.363281 11.589844 16.707031 11.070312 15.929688 10.667969 C 16.5 9.871094 16.839844 8.898438 16.839844 7.847656 C 16.839844 7.828125 16.835938 7.808594 16.835938 7.789062 C 17.929688 7.554688 18.75 6.585938 18.75 5.421875 C 18.75 4.085938 17.664062 3 16.328125 3 C 15.640625 3 15.019531 3.289062 14.578125 3.75 C 13.828125 3.277344 12.945312 3 11.996094 3 C 11.046875 3 10.164062 3.277344 9.417969 3.746094 C 8.976562 3.289062 8.359375 3 7.671875 3 C 6.335938 3 5.25 4.085938 5.25 5.421875 C 5.25 6.582031 6.066406 7.546875 7.152344 7.785156 C 7.152344 7.804688 7.148438 7.828125 7.148438 7.847656 C 7.148438 8.902344 7.492188 9.875 8.0625 10.671875 C 7.289062 11.074219 6.636719 11.59375 6.15625 12.195312 C 5.878906 12.070312 5.574219 12 5.25 12 C 4.007812 12 3 13.007812 3 14.25 C 3 15.492188 4.007812 16.5 5.25 16.5 C 5.269531 16.5 5.289062 16.492188 5.3125 16.492188 C 5.269531 16.738281 5.25 16.992188 5.25 17.25 C 5.25 19.320312 6.59375 21 8.25 21 C 9.261719 21 10.152344 20.367188 10.699219 19.40625 C 11.121094 19.46875 11.554688 19.5 12 19.5 C 12.445312 19.5 12.878906 19.46875 13.300781 19.40625 C 13.847656 20.367188 14.738281 21 15.75 21 C 17.40625 21 18.75 19.320312 18.75 17.25 C 18.75 16.992188 18.730469 16.738281 18.6875 16.492188 C 18.710938 16.492188 18.730469 16.5 18.75 16.5 C 19.992188 16.5 21 15.492188 21 14.25 C 21 13.007812 19.992188 12 18.75 12 "/></svg>

<svg viewBox="0 0 24 24" height="24px" width="24px" fill="#44739e" xmlns="http://www.w3.org/2000/svg"><title>hue:room-kids</title><desc>Source: https://github.com/arallsopp/hass-hue-icons</desc><path d="M15.75,19.12c-0.83,0-1.5-0.84-1.5-1.88s0.67-1.88,1.5-1.88s1.5,0.84,1.5,1.88S16.58,19.12,15.75,19.12 M12,11.25c-1.24,0-2.25-0.84-2.25-1.88S10.76,7.5,12,7.5s2.25,0.84,2.25,1.88S13.24,11.25,12,11.25 M8.25,19.12 c-0.83,0-1.5-0.84-1.5-1.88s0.67-1.88,1.5-1.88s1.5,0.84,1.5,1.88S9.08,19.12,8.25,19.12z M12,8.25c0.41,0,0.75,0.34,0.75,0.75 S12.41,9.75,12,9.75S11.25,9.41,11.25,9S11.59,8.25,12,8.25z M18.75,12c-0.32,0-0.63,0.07-0.91,0.2c-0.48-0.61-1.14-1.12-1.91-1.53 c0.57-0.8,0.91-1.77,0.91-2.82c0-0.02,0-0.04,0-0.06c1.09-0.23,1.91-1.2,1.91-2.37c0-1.34-1.09-2.42-2.42-2.42 c-0.69,0-1.31,0.29-1.75,0.75C13.83,3.28,12.95,3,12,3c-0.95,0-1.83,0.28-2.58,0.75C8.98,3.29,8.36,3,7.67,3 C6.34,3,5.25,4.09,5.25,5.42c0,1.16,0.82,2.12,1.9,2.36c0,0.02,0,0.04,0,0.06c0,1.05,0.34,2.03,0.91,2.82 c-0.77,0.4-1.43,0.92-1.91,1.52C5.88,12.07,5.57,12,5.25,12C4.01,12,3,13.01,3,14.25s1.01,2.25,2.25,2.25 c0.02,0,0.04-0.01,0.06-0.01c-0.04,0.25-0.06,0.5-0.06,0.76c0,2.07,1.34,3.75,3,3.75c1.01,0,1.9-0.63,2.45-1.59 c0.42,0.06,0.86,0.09,1.3,0.09s0.88-0.03,1.3-0.09c0.55,0.96,1.44,1.59,2.45,1.59c1.66,0,3-1.68,3-3.75c0-0.26-0.02-0.51-0.06-0.76 c0.02,0,0.04,0.01,0.06,0.01c1.24,0,2.25-1.01,2.25-2.25S19.99,12,18.75,12"/></svg>
